X: 1
T: Dedo Mili Dedo   [Am]
O: Macedonia
Z: 2018 John Chambers <jc:trillian.mit.edu>
M: 2/4
L: 1/16
K: Am
"instr."[|\
"Am"[a2c2][ac][bd] [c'e][ac][bd][gB] | ~[a2c2][ac][gB] [ac][bd][c'e][gB] |\
[ac][eG][ac][bd] [c'e][ac][bd][gB] | [a2c2]z2 "Dm"[fd][ec][dB][cA] |\
"Am"[c2A2][cA][dB] [ec][cA][dB][BG] |
~[c2A2][cA][BG] [cA][dB][ec][BG] |\
[cA][AE][cA][dB] ~[e2c2][ec][dB] | ~[c2A2][cA][BE] [A2A2] "^fine"z2 |]\
"verse"|:\
"C"d2e2 e2e2 | ~e2d2 ~d2c2 |\
"Dm"e2d2 d2c2 | c2B2 ~A2G2 ||
"chorus"||\
"Am"A2B2 c2B2 | "Dm"d3A A4 |\
"Am"A2~G2 "Em"=F2G2 | "Am"A4 A4 |\
"Am"A2B2 c2B2 | "Dm"d3A A4 |\
"Am"A2~G2 "Em"=F2G2 | "Am"A4 A4 :|
